X:226
T:Three jolly butchers - Bennett
%%VWML:SBG-1-2-282-0
F:http://www.vwml.org/record/SBG/1/2/282
Z:Original Sibelius transcriptions by M. & S. Graebe
L:1/8
M:6/8
I:linebreak $
K:C
V:1 treble nm="P1"
V:2 treble 
V:1
 G | C2 D E2 C | F3 G2 G | G2 E D2 E | C3 z2 C | E2 F GAB |$ c3 d2 c | B2 B AG ^F | G3 z2 G | %9
w: |||||||||
w: |||||||||
w: |||||||||
w: |||||||||
w: |||||||||
w: |||||||||
 G2 G GAB | c3 d2 c | _B2 B AGF |$ G3 _B2 A | G2 E D2 C | F2 G _BAG | G2 G C2 C | C6 | %17
w: ||||||||
w: ||||||||
w: ||||||||
w: ||||||||
w: ||||||||
w: |||* ) *|||||
V:2
 x | x6 | x6 | x6 | x6 | x6 |$ x6 | x6 | x6 | x6 | x6 | x6 |$ x6 | x6 | F2 F G2 G | F2 E C2 C | %16
 x6 |
T:Three jolly butchers - Burstow LEB
F:http://www.vwml.org/record/SBG/1/2/282
Z:Original Sibelius transcriptions by M. & S. Graebe
M:4/4
I:linebreak $
K:C
V:1 treble nm="P1"
V:1
 G | c c B c/A/ | G A/B/ c A | G3/2 F/ D E | C3 c/ c/ | B A B c | d3/2 e/ d (d/c/) |$ B3/2 G/ A B | %8
w: ||||||||
 G3 G | G c B c | c/d/ e d c | c/G/- G A G | F2- E z | G c B c |$ B/c/- d c A | G3/2 E/ D E | C3 | %17
w: |||||||||
 G/ G/ | G c c d/-c/ | c e d c/ c/ |$ c G A G | F2 E F | G c B/c/ d | G2 c c | G3/2 E/ F D | C3 x | %26
w: With a|hey ding dong &c. *||||||||

